src/images/settings_header_icon.svg

<svg width="25" height="25" viewBox="0 0 25 25" fill="none" xmlns="http://www.w3.org/2000/svg">
<g clip-path="url(#clip0_20_810)">
<path d="M13.2845 25H11.7155C10.4465 25 9.41401 23.9676 9.41401 22.6986V22.1678C8.87451 21.9954 8.35034 21.7778 7.84678 21.5172L7.47061 21.8934C6.55952 22.8056 5.1001 22.7789 4.21548 21.8931L3.10654 20.7842C2.22036 19.899 2.19487 18.44 3.10684 17.5291L3.48271 17.1532C3.22212 16.6496 3.00459 16.1255 2.83218 15.5859H2.30142C1.03247 15.5859 0 14.5535 0 13.2845V11.7155C0 10.4465 1.03247 9.41406 2.30146 9.41406H2.83223C3.00464 8.87451 3.22217 8.35039 3.48276 7.84683L3.10659 7.4707C2.19517 6.56025 2.22031 5.10117 3.10688 4.21558L4.21592 3.10659C5.10259 2.2187 6.56167 2.19653 7.471 3.10688L7.84683 3.48271C8.35039 3.22217 8.87456 3.00459 9.41406 2.83218V2.30142C9.41406 1.03242 10.4465 0 11.7155 0H13.2845C14.5535 0 15.5859 1.03242 15.5859 2.30142V2.83223C16.1254 3.00459 16.6496 3.22217 17.1532 3.48276L17.5293 3.10659C18.4404 2.19438 19.8999 2.22114 20.7845 3.10693L21.8934 4.21582C22.7796 5.10103 22.8051 6.55996 21.8931 7.47095L21.5172 7.84683C21.7778 8.35039 21.9954 8.87446 22.1678 9.41406H22.6985C23.9675 9.41406 25 10.4465 25 11.7155V13.2845C25 14.5535 23.9675 15.5859 22.6985 15.5859H22.1678C21.9954 16.1255 21.7778 16.6496 21.5172 17.1532L21.8934 17.5293C22.8048 18.4398 22.7797 19.8989 21.8931 20.7845L20.7841 21.8935C19.8974 22.7813 18.4383 22.8035 17.529 21.8932L17.1532 21.5173C16.6496 21.7779 16.1254 21.9955 15.5859 22.1679V22.6987C15.5859 23.9676 14.5535 25 13.2845 25ZM8.09165 19.979C8.79121 20.3927 9.54414 20.7053 10.3295 20.908C10.6529 20.9914 10.8789 21.2831 10.8789 21.6171V22.6986C10.8789 23.1599 11.2542 23.5352 11.7155 23.5352H13.2845C13.7458 23.5352 14.1211 23.1599 14.1211 22.6986V21.6171C14.1211 21.2831 14.3471 20.9914 14.6706 20.908C15.4559 20.7053 16.2088 20.3927 16.9084 19.979C17.1962 19.8088 17.5627 19.8551 17.7992 20.0916L18.5652 20.8576C18.8955 21.1883 19.4258 21.1806 19.748 20.858L20.8577 19.7483C21.1791 19.4273 21.1898 18.8968 20.858 18.5654L20.0917 17.7991C19.8552 17.5626 19.8089 17.1961 19.9791 16.9083C20.3928 16.2088 20.7053 15.4559 20.908 14.6705C20.9915 14.3471 21.2832 14.1211 21.6172 14.1211H22.6986C23.1599 14.1211 23.5352 13.7458 23.5352 13.2846V11.7155C23.5352 11.2542 23.1599 10.879 22.6986 10.879H21.6172C21.2832 10.879 20.9915 10.653 20.908 10.3296C20.7053 9.54419 20.3928 8.79126 19.9791 8.09175C19.8089 7.80395 19.8552 7.43745 20.0917 7.20103L20.8577 6.43496C21.1889 6.1042 21.1802 5.57393 20.858 5.2521L19.7484 4.14248C19.4268 3.82041 18.8963 3.81099 18.5655 4.14219L17.7992 4.90855C17.5628 5.14502 17.1962 5.19131 16.9084 5.02109C16.2089 4.60737 15.456 4.29482 14.6706 4.09214C14.3472 4.00869 14.1212 3.71699 14.1212 3.38296V2.30142C14.1212 1.84014 13.7458 1.46484 13.2846 1.46484H11.7156C11.2543 1.46484 10.879 1.84014 10.879 2.30142V3.38286C10.879 3.71689 10.653 4.00859 10.3295 4.09204C9.54419 4.29473 8.79126 4.60728 8.0917 5.021C7.80381 5.19116 7.43735 5.14487 7.20093 4.90845L6.43491 4.14238C6.10464 3.81172 5.57422 3.81938 5.2521 4.14204L4.14238 5.25171C3.821 5.57271 3.81025 6.10313 4.14209 6.43457L4.90845 7.20093C5.14487 7.43735 5.19116 7.80386 5.021 8.09165C4.60728 8.79116 4.29478 9.54409 4.09209 10.3295C4.00859 10.6529 3.71689 10.8789 3.38291 10.8789H2.30146C1.84019 10.8789 1.46484 11.2542 1.46484 11.7155V13.2845C1.46484 13.7458 1.84019 14.1211 2.30146 14.1211H3.38286C3.71689 14.1211 4.00854 14.3471 4.09204 14.6705C4.29473 15.4559 4.60728 16.2088 5.02095 16.9083C5.19111 17.1961 5.14482 17.5626 4.9084 17.799L4.14233 18.5651C3.81118 18.8959 3.81982 19.4261 4.14204 19.7479L5.25166 20.8576C5.57329 21.1796 6.10376 21.1891 6.43452 20.8579L7.20083 20.0915C7.37505 19.9173 7.7375 19.7695 8.09165 19.979Z" fill="#718EBF"/>
<path d="M12.5 17.9395C9.50063 17.9395 7.06055 15.4993 7.06055 12.5C7.06055 9.50068 9.50063 7.06055 12.5 7.06055C15.4994 7.06055 17.9395 9.50068 17.9395 12.5C17.9395 15.4993 15.4994 17.9395 12.5 17.9395ZM12.5 8.52539C10.3083 8.52539 8.52539 10.3084 8.52539 12.5C8.52539 14.6916 10.3084 16.4746 12.5 16.4746C14.6916 16.4746 16.4746 14.6916 16.4746 12.5C16.4746 10.3084 14.6917 8.52539 12.5 8.52539Z" fill="#718EBF"/>
</g>
<defs>
<clipPath id="clip0_20_810">
<rect width="25" height="25" fill="white"/>
</clipPath>
</defs>
</svg>

<svg xmlns="http://www.w3.org/2000/svg" width="25" height="25" fill="none"><g fill="#718EBF" clip-path="url(#a)"><path d="M13.284 25h-1.569a2.304 2.304 0 0 1-2.301-2.301v-.531c-.54-.173-1.064-.39-1.567-.65l-.376.375a2.301 2.301 0 0 1-3.256 0l-1.108-1.109a2.301 2.301 0 0 1 0-3.255l.376-.376a10.096 10.096 0 0 1-.65-1.567H2.3A2.304 2.304 0 0 1 0 13.284v-1.569a2.304 2.304 0 0 1 2.301-2.3h.531c.173-.54.39-1.065.65-1.568l-.375-.376a2.301 2.301 0 0 1 0-3.255l1.109-1.11a2.301 2.301 0 0 1 3.255 0l.376.377c.503-.26 1.028-.478 1.567-.65V2.3A2.304 2.304 0 0 1 11.716 0h1.569a2.304 2.304 0 0 1 2.3 2.301v.531c.54.173 1.065.39 1.568.65l.376-.375a2.302 2.302 0 0 1 3.256 0l1.108 1.109a2.301 2.301 0 0 1 0 3.255l-.376.376c.26.503.478 1.027.65 1.567h.531A2.304 2.304 0 0 1 25 11.716v1.569a2.304 2.304 0 0 1-2.302 2.3h-.53c-.173.54-.39 1.065-.65 1.568l.375.376c.912.91.887 2.37 0 3.256l-1.109 1.108a2.301 2.301 0 0 1-3.255 0l-.376-.376c-.503.26-1.028.479-1.567.65v.532A2.304 2.304 0 0 1 13.284 25Zm-5.192-5.021c.7.414 1.452.726 2.237.929.324.083.55.375.55.71v1.08c0 .462.375.837.837.837h1.569a.838.838 0 0 0 .836-.836v-1.082c0-.334.226-.626.55-.709a8.636 8.636 0 0 0 2.237-.929.732.732 0 0 1 .891.113l.766.766c.33.33.86.323 1.183 0l1.11-1.11a.837.837 0 0 0 0-1.183l-.766-.766a.732.732 0 0 1-.113-.89c.414-.7.726-1.453.929-2.238a.733.733 0 0 1 .71-.55h1.08a.838.838 0 0 0 .837-.836v-1.57a.837.837 0 0 0-.836-.836h-1.082a.733.733 0 0 1-.709-.55 8.633 8.633 0 0 0-.929-2.237.732.732 0 0 1 .113-.891l.766-.766a.836.836 0 0 0 0-1.183l-1.11-1.11a.836.836 0 0 0-1.183 0l-.766.767a.732.732 0 0 1-.89.112 8.631 8.631 0 0 0-2.238-.929.732.732 0 0 1-.55-.709V2.301a.838.838 0 0 0-.836-.836h-1.57a.838.838 0 0 0-.836.836v1.082a.732.732 0 0 1-.55.709 8.634 8.634 0 0 0-2.237.929.733.733 0 0 1-.891-.113l-.766-.766a.836.836 0 0 0-1.183 0l-1.11 1.11a.836.836 0 0 0 0 1.183l.766.766a.732.732 0 0 1 .113.89 8.632 8.632 0 0 0-.929 2.239.732.732 0 0 1-.71.549h-1.08a.838.838 0 0 0-.837.837v1.569c0 .46.375.836.836.836h1.082c.334 0 .626.226.709.55.203.785.515 1.538.929 2.237a.732.732 0 0 1-.113.891l-.766.766a.836.836 0 0 0 0 1.183l1.11 1.11a.836.836 0 0 0 1.183 0l.766-.767a.736.736 0 0 1 .89-.112Z"/><path d="M12.5 17.94c-3 0-5.44-2.44-5.44-5.44 0-3 2.44-5.44 5.44-5.44 3 0 5.44 2.44 5.44 5.44 0 3-2.44 5.44-5.44 5.44Zm0-9.415A3.98 3.98 0 0 0 8.525 12.5a3.98 3.98 0 0 0 3.975 3.975 3.98 3.98 0 0 0 3.975-3.975A3.979 3.979 0 0 0 12.5 8.525Z"/></g><defs><clipPath id="a"><path fill="#fff" d="M0 0h25v25H0z"/></clipPath></defs></svg>
